!!!!SEGMENT: pl-wn--sd-xvi-qu-273--048_gomolka-mikolaj--o-panie-ktory-nie-masz-nic-rownego-sobie.krn
!!!cenid: 15xx:253
!!!COM: Gomółka, Mikołaj
!!!COM-rismid: pe30013343
!!!CDT: ~1535->1591/04/30
!!!CNT: Polish
!!!GTL: Melodiae na psalterz polski
!!!OTL: XLVIII. O Panie, który nie masz nic równego sobie,
!!!ONB: PSALM XLVIII. Magnus Dominus et laudabilis nimis, in ciuitate Dei nostri. in monte sancto eius.
!!!PDT: 1580
!!!AGN: Sacred
!!!SMS-siglum: PL-Wn
!!!SMS-shelfmark: SD XVI.Qu.273
!!!SMS-shelfwork: 048 G
!!!NIFC-rismid:
!!!ONB-nifc: Melodiae na psalterz polski
**kern	**text	**kern	**text	**kern	**text	**kern	**text
*part4	*part4	*part3	*part3	*part2	*part2	*part1	*part1
*staff4	*staff4	*staff3	*staff3	*staff2	*staff2	*staff1	*staff1
*clefF3	*	*clefC3	*	*clefC1	*	*clefG2	*
*k[]	*	*k[]	*	*k[]	*	*k[]	*
*C:	*	*C:	*	*C:	*	*C:	*
*M2/1	*	*M2/1	*	*M2/1	*	*M2/1	*
*met(C|)	*	*met(C|)	*	*met(C|)	*	*met(C|)	*
*I"BASSUS.	*	*I"TENOR.	*	*I"ALTUS.	*	*I"CANTUS.	*
=1-	=1	=1-	=1	=1-	=1	=1-	=1
1C/	O	1c\	O	1g\	O	1ee\	O
4C/	Pá-	1c\	Pá-	1g\	Pá-	1ee\	Pá-
4D/	.	.	.	.	.	.	.
4E/	.	.	.	.	.	.	.
4F/	.	.	.	.	.	.	.
=2-	=2	=2-	=2	=2-	=2	=2-	=2
2G\	-nie,	2B/	-nie,	2g\	-nie,	2dd\	-nie,
4r	.	4r	.	4r	.	4r	.
4G\	któ-	4B/	któ-	4g/	któ-	4dd\	któ-
2C/	-ry	2c/	-ry	2g/	-ry	2ee\	-ry
2D/	nié-	2A/	nié-	2f/	nié-	4dd\	nié-
.	.	.	.	.	.	4cc\	.
=3-	=3	=3-	=3	=3-	=3	=3-	=3
2GG/	-masz	1G/	-masz	2g/	-masz	2b/	-masz
1C/	nic	.	.	1g\	nic	2.ee\	nic
.	.	1c\	nic	.	.	.	.
.	.	.	.	.	.	4dd\	.
1F\	ró-	.	.	1a\	ró-	1cc\	ró-
=4-	=4	=4-	=4	=4-	=4	=4-	=4
.	.	2.f\	ró-	.	.	.	.
2F/	-wné-	.	.	2a\	-wné-	4b/	-wné-
.	.	4e\	-wné-	.	.	4a/	.
2G\	-go	2d\	-go	1g\	-go	2b/	-go
2E/	so-	2c/	so-	.	.	1cc\	so-
=5-	=5	=5-	=5	=5-	=5	=5-	=5
2F/	.	1d\	-bie,	2f/	so-	.	.
2G\	-bie,	.	.	2d/	-bie,	2b/	-bie,
2C/	Słu-	2c/	Słu-	2e/	Słu-	2cc\	Słu-
2C/	.	2c/	.	2cc\	.	2ee\	.
=6-	=6	=6-	=6	=6-	=6	=6-	=6
2F/	-sznie	2c/	-sznie	2a\	-sznie	2cc\	-sznie
2F/	od-	2c/	od-	2a\	od-	2cc\	od-
!!LO:PB:g=original
2D/	-da-	2.f\	-da-	1a\	-da-	2.dd\	-da-
2d\	-wa	.	.	.	.	.	.
.	.	4e\	-wa	.	.	4cc\	.
=7-	=7	=7-	=7	=7-	=7	=7-	=7
!	!	!	!	!LO:SIC:s=2b-:v	!	!	!
2B-X\	chwa-	2d\	chwa-	2b\	-wa	4dd\	-wa
.	.	.	.	.	.	4ee\	.
4F\	.	2.c/	.	2a\	chwa-	2ff\	chwa-
4G\	.	.	.	.	.	.	.
4A\	.	.	.	2a\	-łę	1ee\	-łę
4Bny\	.	4d\	-łę	.	.	.	.
2c\	-łę	4e\	.	2g/	.	.	.
.	.	4f\	Si-	.	.	.	.
=8-	=8	=8-	=8	=8-	=8	=8-	=8
2C/	Si-	2.g\	-on	2cc\	Si-	2ee\	Si-
2G\	-on	.	.	2b\	-on	2dd\	-on
.	.	4f\	to-	.	.	.	.
1A\	to-	2e\	.	4a\	to-	1cc\	to-
.	.	.	.	2g/	.	.	.
.	.	2c/	-bie,	.	.	.	.
.	.	.	.	4f/	-bie,	.	.
=9-	=9	=9-	=9	=9-	=9	=9-	=9
2G\	-b(ie,)	2d\	Si-	2g/	Si-	2b/	-bie,
2G\	Si-	2d\	-(on)	2b\	-on	2gg\	Si-
2c\	-on	2e\	kw(iat)	2cc\	kw(iat)	2ee\	-on
2c\	kw(iat)	2e\	gó(r)	2cc\	gó(r)	2ee\	kw(iat)
=10-	=10	=10-	=10	=10-	=10	=10-	=10
2.F/	gó(r)	2.a\	wy-	2.cc\	wy-	2.ff\	gó(r)
4F/	wy-	4a\	-(so-	4cc\	-so-	4ff\	wy-
1F\	-so-	1a\	-kich)	1cc\	-(kich)	1ff\	-so-
=11-	=11	=11-	=11	=11-	=11	=11-	=11
2C/	-(kich)	2g\	.	2cc\	roz-	2ee\	-(kich)
1G\	roz-	2d\	roz-	2b\	-kosz	2dd\	roz-
.	.	2d\	-kosz	2.g/	.	2b/	-kosz
2E/	-k(osz)	4e\	świá-	.	.	2.ee\	świá-
.	.	4d\	.	4f/	świá-	.	.
=12-	=12	=12-	=12	=12-	=12	=12-	=12
2.A\	świá-	4c/	.	2e/	-tá	.	.
.	.	4B/	.	.	.	4dd\	.
.	.	2c/	-tá	2a\	.	4cc\	-tá
4G\	-tá	.	.	.	.	4b\	.
!!LO:PB:g=original
2F/	wsze-	2.f	wsze-	2a\	wsze-	1cc\	wsze-
2F/	-go,	.	.	2a\	-go,	.	.
.	.	4e\	-go,	.	.	.	.
=13-	=13	=13-	=13	=13-	=13	=13-	=13
1G\	.	2d\	.	1g\	Bo-	2b/	-go,
.	.	2d\	Bo-	.	.	2g/	Bo-
2r	.	2e\	-ki	2g/	-ki	2cc\	-ki
2G\	Bo-	2d\	pół-	2.g/	pół-	2b/	pół-
=14-	=14	=14-	=14	=14-	=14	=14-	=14
2c\	-ki	4e\	.	.	.	2.cc\	-no-
.	.	4f\	-no-	4a\	-no-	.	.
2Bny\	pół-	4g\	.	2b\	-cné	.	.
.	.	4f\	.	.	.	4dd\	-cné,
2.c\	-no-	4e\	-cné	2a\	dwór	2ee\	.
.	.	4d\	dwór	.	.	.	.
.	.	2e\	.	2g/	.	2ee\	dwór
4B\	-cné	.	.	.	.	.	.
=15-	=15	=15-	=15	=15-	=15	=15-	=15
4A\	dwór	2e\	kró-	4cc\	kró-	2cc\	kró-
4G\	kró-	.	.	4b\	.	.	.
4F/	.	2f\	.	4a\	-lá	2.dd\	-lá
4E/	-lá	.	.	4g\	.	.	.
2D/	.	2.f\	-lá	2.a\	wiel-	.	.
.	.	.	.	.	.	4cc\	wiel-
2E/	wiel-	.	.	.	.	1cc\	-kié-
.	.	4e\	wiel-	4g/	.	.	.
=16-	=16	=16-	=16	=16-	=16	=16-	=16
2F/	-kié	4d\	-kié-	4f/	-kié-	.	.
.	.	4c\	.	8e/L	.	.	.
.	.	.	.	8f/J	.	.	.
2G\	-go.	2d\	-go.	4e/	.	2b\	-go.
.	.	.	.	4d/	.	.	.
*	*	*	*	*000/left	*	*	*
000C/	.	000c\	.	000e/	-go.	000cc\	.
==	==	==	==	==	==	==	==
*-	*-	*-	*-	*-	*-	*-	*-
!!!RDF**kern: l = terminal long
!!!system-decoration: s1,s2,s3,s4
!!!ENC: Marta Lawrence
!!!END: 2020-02-10
!!!URL-scan: https://polona.pl/item/melodiae-na-psalterz-polski,Nzk3MTM4ODQ/121 Scan on Polona
!!!IIIF: https://polona.pl/iiif/item/Nzk3MTM4ODQ/manifest.json
